X:1
T: The Flower of the Flock
C:
R:Reel
Q: 232
K:G
M:4/4
L:1/8
GE|DE GA BG GB|cA BG AG EG|DE GA BA Bc|dB AB G2 GE|
DE GA BG GB|cA BG AG EG|DE GA BA Bc|dB AB G2 ((3def)|
g2 ge d2 dB|Ac BG AG EG|g2 ge d2 d2|ea ab ag ef|
gf ge de dB|cA BG AG EG|DE GA BA Bc|dB AB G2 ((3def)|
g2 ge d2 dB|Ac BG AG EG|g2 ge d2 d2|ea ab ag ef|
gf ge de dB|cA BG AG EG|DE GA BA Bc|dB AB G2 GE|
DE GA BG GB|cA BG AG EG|DE GA BA Bc|dB AB G2 GE|
DE GA BG GB|cA BG AG EG|DE GA BA Bc|dB AB G2||
